public/static/icons/navbar/ic_authenticator.svg

<svg height="24" viewBox="0 0 24 24" width="24" xmlns="http://www.w3.org/2000/svg"><g transform="translate(4 2)"><path d="m3.60884956 1.93539823c.9238938-1.18230088 2.40884956-1.91681416 3.91327433-1.89292035 1.50353983-.02389381 2.98584071.70884955 3.91061951 1.88849557.738938.92654867 1.1292035 2.12477876 1.0681416 3.30884956-.6221239-.14070797-1.2539823-.23097345-1.8831859-.33362832-.0176991-.96106195-.5380531-1.88938053-1.32743361-2.43097345-.74424779-.52477876-1.72654868-.69911505-2.60265487-.44247788-1.26814159.33893806-2.24247788 1.55663717-2.26106195 2.87522124-.62920354.1-1.26106194.19026549-1.88230088.33274336-.06106195-1.18318584.32743363-2.37964601 1.06460177-3.30530973z" opacity=".48"/><path d="m15.0017699 6.88318584c-.0044248.6840708.0088496 1.36902655-.0097345 2.0539823-.020354 2.68672566-.9920354 5.34867256-2.6849558 7.43274336-1.2654867 1.5699115-2.92654863 2.8159292-4.78495571 3.5982301-2.64690265-1.1097345-4.88495575-3.1752212-6.17168141-5.7442478-.78230089-1.5265487-1.21592921-3.2256637-1.29292036-4.93805309-.00530973-.80176991 0-1.60442478-.00265486-2.40619469 4.79823009-1.65840708 10.14955754-1.65575221 14.94690264.00353982zm-9.32831857 3.02566372c-.06106195.74247784.39646017 1.47168144 1.06814159 1.77610624-.48495575.1761061-.9300885.478761-1.22743363.9035398-.38584071.5008849-.49380531 1.1442478-.48672566 1.7610619 1.66371681.000885 3.32654867.000885 4.98938057 0-.0088496-.4637168-.03628323-.9451327-.25132747-1.3663717-.28230089-.6115044-.82920354-1.0769911-1.46194691-1.299115.64159292-.2920354 1.09734514-.9734513 1.0681416-1.68495576.04513274-.99026548-.86283186-1.89380531-1.85221239-1.84955752-.95575222-.0380531-1.8380531.80442478-1.8460177 1.75929204z"/></g></svg>

<svg xmlns="http://www.w3.org/2000/svg" width="24" height="24" viewBox="0 0 24 24">
  <g transform="translate(4 2)">
    <path d="M3.60884956,1.93539823 C4.53274336,0.753097345 6.01769912,0.0185840708 7.52212389,0.0424778761 C9.02566372,0.0185840708 10.5079646,0.751327434 11.4327434,1.93097345 C12.1716814,2.85752212 12.5619469,4.05575221 12.500885,5.23982301 C11.8787611,5.09911504 11.2469027,5.00884956 10.6176991,4.90619469 C10.6,3.94513274 10.079646,3.01681416 9.29026549,2.47522124 C8.5460177,1.95044248 7.56371681,1.77610619 6.68761062,2.03274336 C5.41946903,2.37168142 4.44513274,3.58938053 4.42654867,4.9079646 C3.79734513,5.0079646 3.16548673,5.09823009 2.54424779,5.24070796 C2.48318584,4.05752212 2.87168142,2.86106195 3.60884956,1.93539823 Z" opacity=".48"/>
    <path d="M15.0017699,6.88318584 C14.9973451,7.56725664 15.0106195,8.25221239 14.9920354,8.93716814 C14.9716814,11.6238938 14,14.2858407 12.3070796,16.3699115 C11.0415929,17.939823 9.38053097,19.1858407 7.52212389,19.9681416 C4.87522124,18.8584071 2.63716814,16.7929204 1.35044248,14.2238938 C0.568141593,12.6973451 0.134513274,10.9982301 0.0575221239,9.28584071 C0.0522123894,8.4840708 0.0575221239,7.68141593 0.0548672566,6.87964602 C4.85309735,5.22123894 10.2044248,5.22389381 15.0017699,6.88318584 Z M5.67345133,9.90884956 C5.61238938,10.6513274 6.0699115,11.380531 6.74159292,11.6849558 C6.25663717,11.8610619 5.81150442,12.1637168 5.51415929,12.5884956 C5.12831858,13.0893805 5.02035398,13.7327434 5.02743363,14.3495575 C6.69115044,14.3504425 8.3539823,14.3504425 10.0168142,14.3495575 C10.0079646,13.8858407 9.98053097,13.4044248 9.76548673,12.9831858 C9.48318584,12.3716814 8.93628319,11.9061947 8.30353982,11.6840708 C8.94513274,11.3920354 9.40088496,10.7106195 9.37168142,9.99911504 C9.41681416,9.00884956 8.50884956,8.10530973 7.51946903,8.14955752 C6.56371681,8.11150442 5.68141593,8.9539823 5.67345133,9.90884956 Z"/>
  </g>
</svg>
